golf-cart.svg

<svg fill="currentColor" viewBox="0 0 24 24"><path d="M19.89 12.37 18.25 5H19V3H3v4H1v2h2v3.54A6 6 0 0 0 1 17v2h2a3 3 0 0 0 6 0h6a3 3 0 0 0 6 0h2v-2a5 5 0 0 0-3.11-4.63M6 20.5A1.5 1.5 0 1 1 7.5 19 1.5 1.5 0 0 1 6 20.5m9.53-8.5-1.15-1.72 1.42-.95-1.1-1.66-4.5 3 1.1 1.66 1.43-.95 1.15 1.74L13 14h-2.8L5 7V5h11.2l1.55 7m.25 8.5a1.5 1.5 0 1 1 1.5-1.5 1.5 1.5 0 0 1-1.5 1.5"/></svg>

<svg  viewBox="0 0 24 24" fill="currentColor"><path  d="M19.89 12.37L18.25 5H19V3H3V7H1V9H3V12.54A6 6 0 0 0 1 17V19H3A3 3 0 0 0 9 19H15A3 3 0 0 0 21 19H23V17A5 5 0 0 0 19.89 12.37M6 20.5A1.5 1.5 0 1 1 7.5 19A1.5 1.5 0 0 1 6 20.5M15.53 12L14.38 10.28L15.8 9.33L14.7 7.67L10.2 10.67L11.3 12.33L12.73 11.38L13.88 13.12L13 14H10.2L5 7V5H16.2L17.75 12M18 20.5A1.5 1.5 0 1 1 19.5 19A1.5 1.5 0 0 1 18 20.5Z"/></svg>
